src/images/documents/svg/excel.svg

<svg fill="none" height="120" viewBox="0 0 80 120" width="80" xmlns="http://www.w3.org/2000/svg"><path d="m1 119v-118h58.5858l19.4142 19.4142v98.5858z" fill="#fff" stroke="#428542" stroke-width="2"/><g fill="#428542"><path d="m80 20-20-20v20z"/><path d="m10 65h12.5v5h-12.5z"/><path d="m25.833 64.9999h12.5v5h-12.5z"/><path d="m41.667 64.9999h12.5v5h-12.5z"/><path d="m57.5 64.9999h12.5v5h-12.5z"/><path d="m10 74.9999h12.5v5h-12.5z"/><path d="m25.833 74.9999h12.5v5h-12.5z"/><path d="m41.667 74.9999h12.5v5h-12.5z"/><path d="m57.5 74.9999h12.5v5h-12.5z"/><path d="m10 84.9999h12.5v5h-12.5z"/><path d="m25.833 84.9999h12.5v5h-12.5z"/><path d="m41.667 84.9999h12.5v5h-12.5z"/><path d="m57.5 84.9999h12.5v5h-12.5z"/><path d="m10 28h60v27h-60z"/></g><path d="m28.5669 46.0005v1.9995h-6.6223v-1.9995zm-5.7849-10.4419v12.4414h-2.5635v-12.4414zm4.9219 5.0671v1.9483h-5.7593v-1.9483zm.8544-5.0671v2.0081h-6.6137v-2.0081zm3.3326 3.1958 1.5295 2.8113 1.5723-2.8113h2.6233l-2.6148 4.5203 2.7344 4.7253h-2.6318l-1.6663-2.9736-1.6663 2.9736h-2.6318l2.7344-4.7253-2.6148-4.5203zm10.57 7.4939c.302 0 .5697-.057.8033-.1709.2335-.1196.4158-.2848.5468-.4956.1368-.2165.208-.47.2137-.7605h2.3156c-.0057.6494-.1794 1.2276-.5212 1.7346-.3418.5013-.8004.8972-1.3757 1.1878-.5754.2848-1.2191.4272-1.9312.4272-.7178 0-1.3444-.1196-1.8799-.3589-.5298-.2392-.9712-.5696-1.3244-.9912-.3532-.4272-.6181-.9229-.7947-1.4868-.1766-.5697-.2649-1.1792-.2649-1.8286v-.2478c0-.6551.0883-1.2647.2649-1.8286.1766-.5697.4415-1.0653.7947-1.4869.3532-.4272.7946-.7605 1.3244-.9997.5298-.2393 1.1507-.3589 1.8628-.3589.7577 0 1.4213.1453 1.991.4358.5753.2905 1.0254.7064 1.3501 1.2475.3304.5355.4984 1.1707.5041 1.9056h-2.3156c-.0057-.3077-.0712-.5868-.1966-.8374-.1196-.2507-.2962-.4501-.5298-.5982-.2278-.1538-.5098-.2307-.8459-.2307-.3589 0-.6523.0769-.8801.2307-.2279.1481-.4045.3532-.5298.6153-.1253.2563-.2136.5497-.2649.8801-.0456.3247-.0684.6665-.0684 1.0254v.2478c0 .3589.0228.7035.0684 1.0339s.131.6238.2563.8801c.1311.2564.3105.4586.5384.6067.2278.1481.5241.2222.8886.2222zm9.5618 1.9226c-.7178 0-1.3615-.1139-1.9311-.3418-.5697-.2336-1.0539-.5554-1.4527-.9656-.3931-.4101-.695-.8858-.9057-1.427-.2108-.5469-.3162-1.1279-.3162-1.7431v-.3418c0-.7007.0997-1.3416.2991-1.9226.1993-.5811.4842-1.0852.8545-1.5125.3759-.4272.8317-.7548 1.3671-.9827.5355-.2335 1.1394-.3503 1.8116-.3503.6551 0 1.2361.1082 1.7431.3247s.9314.5241 1.2732.9229c.3475.3987.6096.8772.7862 1.4355.1766.5526.2649 1.1678.2649 1.8457v1.0254h-7.3487v-1.6406h4.9304v-.188c0-.3418-.0626-.6466-.188-.9143-.1196-.2735-.3019-.4899-.5468-.6494-.245-.1595-.5583-.2393-.94-.2393-.3247 0-.6038.0712-.8374.2136-.2335.1424-.4244.3418-.5725.5982-.1424.2563-.2506.5582-.3247.9057-.0683.3418-.1025.7178-.1025 1.128v.3418c0 .3702.0512.712.1538 1.0254.1082.3133.2592.5839.4529.8117.1993.2279.4386.4045.7177.5298.2849.1253.6067.188.9656.188.4443 0 .8574-.0855 1.239-.2564.3874-.1766.7206-.4414.9998-.7946l1.1963 1.2988c-.1937.2791-.4586.5469-.7947.8032-.3304.2564-.7292.4671-1.1963.6323-.4671.1595-.9998.2393-1.5979.2393zm7.793-13.2959v13.125h-2.4695v-13.125z" fill="#fff"/></svg>

<svg width="80" height="120" viewBox="0 0 80 120" fill="none" xmlns="http://www.w3.org/2000/svg">
<path d="M1 119V1H59.5858L79 20.4142V119H1Z" fill="white" stroke="#0065BD" stroke-width="2"/>
<path d="M80 20L60 0V20H80Z" fill="#0065BD"/>
<rect x="10" y="65" width="12.5" height="5" fill="#0065BD"/>
<rect x="25.833" y="64.9999" width="12.5" height="5" fill="#0065BD"/>
<rect x="41.667" y="64.9999" width="12.5" height="5" fill="#0065BD"/>
<rect x="57.5" y="64.9999" width="12.5" height="5" fill="#0065BD"/>
<rect x="10" y="74.9999" width="12.5" height="5" fill="#0065BD"/>
<rect x="25.833" y="74.9999" width="12.5" height="5" fill="#0065BD"/>
<rect x="41.667" y="74.9999" width="12.5" height="5" fill="#0065BD"/>
<rect x="57.5" y="74.9999" width="12.5" height="5" fill="#0065BD"/>
<rect x="10" y="84.9999" width="12.5" height="5" fill="#0065BD"/>
<rect x="25.833" y="84.9999" width="12.5" height="5" fill="#0065BD"/>
<rect x="41.667" y="84.9999" width="12.5" height="5" fill="#0065BD"/>
<rect x="57.5" y="84.9999" width="12.5" height="5" fill="#0065BD"/>
<rect x="10" y="28" width="60" height="27" fill="#0065BD"/>
<path d="M28.5669 46.0005V48H21.9446V46.0005H28.5669ZM22.782 35.5586V48H20.2185V35.5586H22.782ZM27.7039 40.6257V42.574H21.9446V40.6257H27.7039ZM28.5583 35.5586V37.5667H21.9446V35.5586H28.5583ZM31.8909 38.7544L33.4204 41.5657L34.9927 38.7544H37.616L35.0012 43.2747L37.7356 48H35.1038L33.4375 45.0264L31.7712 48H29.1394L31.8738 43.2747L29.259 38.7544H31.8909ZM42.4609 46.2483C42.7629 46.2483 43.0306 46.1913 43.2642 46.0774C43.4977 45.9578 43.68 45.7926 43.811 45.5818C43.9478 45.3653 44.019 45.1118 44.0247 44.8213H46.3403C46.3346 45.4707 46.1609 46.0489 45.8191 46.5559C45.4773 47.0572 45.0187 47.4531 44.4434 47.7437C43.868 48.0285 43.2243 48.1709 42.5122 48.1709C41.7944 48.1709 41.1678 48.0513 40.6323 47.812C40.1025 47.5728 39.6611 47.2424 39.3079 46.8208C38.9547 46.3936 38.6898 45.8979 38.5132 45.334C38.3366 44.7643 38.2483 44.1548 38.2483 43.5054V43.2576C38.2483 42.6025 38.3366 41.9929 38.5132 41.429C38.6898 40.8593 38.9547 40.3637 39.3079 39.9421C39.6611 39.5149 40.1025 39.1816 40.6323 38.9424C41.1621 38.7031 41.783 38.5835 42.4951 38.5835C43.2528 38.5835 43.9164 38.7288 44.4861 39.0193C45.0614 39.3098 45.5115 39.7257 45.8362 40.2668C46.1666 40.8023 46.3346 41.4375 46.3403 42.1724H44.0247C44.019 41.8647 43.9535 41.5856 43.8281 41.335C43.7085 41.0843 43.5319 40.8849 43.2983 40.7368C43.0705 40.583 42.7885 40.5061 42.4524 40.5061C42.0935 40.5061 41.8001 40.583 41.5723 40.7368C41.3444 40.8849 41.1678 41.09 41.0425 41.3521C40.9172 41.6084 40.8289 41.9018 40.7776 42.2322C40.732 42.5569 40.7092 42.8987 40.7092 43.2576V43.5054C40.7092 43.8643 40.732 44.2089 40.7776 44.5393C40.8232 44.8697 40.9086 45.1631 41.0339 45.4194C41.165 45.6758 41.3444 45.878 41.5723 46.0261C41.8001 46.1742 42.0964 46.2483 42.4609 46.2483ZM52.0227 48.1709C51.3049 48.1709 50.6612 48.057 50.0916 47.8291C49.5219 47.5955 49.0377 47.2737 48.6389 46.8635C48.2458 46.4534 47.9439 45.9777 47.7332 45.4365C47.5224 44.8896 47.417 44.3086 47.417 43.6934V43.3516C47.417 42.6509 47.5167 42.01 47.7161 41.429C47.9154 40.8479 48.2003 40.3438 48.5706 39.9165C48.9465 39.4893 49.4023 39.1617 49.9377 38.9338C50.4732 38.7003 51.0771 38.5835 51.7493 38.5835C52.4044 38.5835 52.9854 38.6917 53.4924 38.9082C53.9994 39.1247 54.4238 39.4323 54.7656 39.8311C55.1131 40.2298 55.3752 40.7083 55.5518 41.2666C55.7284 41.8192 55.8167 42.4344 55.8167 43.1123V44.1377H48.468V42.4971H53.3984V42.3091C53.3984 41.9673 53.3358 41.6625 53.2104 41.3948C53.0908 41.1213 52.9085 40.9049 52.6636 40.7454C52.4186 40.5859 52.1053 40.5061 51.7236 40.5061C51.3989 40.5061 51.1198 40.5773 50.8862 40.7197C50.6527 40.8621 50.4618 41.0615 50.3137 41.3179C50.1713 41.5742 50.0631 41.8761 49.989 42.2236C49.9207 42.5654 49.8865 42.9414 49.8865 43.3516V43.6934C49.8865 44.0636 49.9377 44.4054 50.0403 44.7188C50.1485 45.0321 50.2995 45.3027 50.4932 45.5305C50.6925 45.7584 50.9318 45.935 51.2109 46.0603C51.4958 46.1856 51.8176 46.2483 52.1765 46.2483C52.6208 46.2483 53.0339 46.1628 53.4155 45.9919C53.8029 45.8153 54.1361 45.5505 54.4153 45.1973L55.6116 46.4961C55.4179 46.7752 55.153 47.043 54.8169 47.2993C54.4865 47.5557 54.0877 47.7664 53.6206 47.9316C53.1535 48.0911 52.6208 48.1709 52.0227 48.1709ZM59.8157 34.875V48H57.3462V34.875H59.8157Z" fill="white"/>
</svg>
